gy/si-glyph-sewing-machine.svg

<svg viewBox="0 0 17 16" xmlns="http://www.w3.org/2000/svg" class="si-glyph si-glyph-sewing-machine" height="1em" width="1em">
  <path d="M16.875 2.125h-1.328C14.93 1.461 13.747 1 12.958 1V.042H12V1H4.042c-1.104 0-2 0-2 1v1.875c0 1.104.891 2 1.989 2V7H3v1h2v2h.958V5.875h.053c.5 0 .726-.415.837-.957l.139-.868c.019-.374-.019.255 0-.05H11v7.042H3.042a2 2 0 0 0-2 2v.916c0 1.104.896 1 2 1h10.916c1.104 0 2 .104 2-1V5.875h.917v-3.75Z" fill="#434343" class="si-glyph-fill" fill-rule="evenodd"/>
</svg>

<svg viewBox="0 0 17 16" version="1.1" xmlns="http://www.w3.org/2000/svg" class="si-glyph si-glyph-sewing-machine" height="1em" width="1em">
  <g stroke="none" stroke-width="1" fill="none" fill-rule="evenodd">
    <path d="M16.875,2.125 L15.547,2.125 C14.93,1.461 13.747,1 12.958,1 L12.958,0.042 L12,0.042 L12,1 L4.042,1 C2.938,1 2.042,1 2.042,2 L2.042,3.875 C2.042,4.979 2.933,5.875 4.031,5.875 L4.031,5.875 L4.031,7 L3,7 L3,8 L5,8 L5,10 L5.958,10 L5.958,5.875 L6.011,5.875 C6.511,5.875 6.737,5.46 6.848,4.918 L6.987,4.05 C7.006,3.676 6.968,4.305 6.987,4 L11,4 L11,11.042 L3.042,11.042 C1.938,11.042 1.042,11.938 1.042,13.042 L1.042,13.958 C1.042,15.062 1.938,14.958 3.042,14.958 L13.958,14.958 C15.062,14.958 15.958,15.062 15.958,13.958 L15.958,13.917 L15.958,5.875 L16.875,5.875 L16.875,2.125 L16.875,2.125 Z" fill="#434343" class="si-glyph-fill"/>
  </g>
</svg>
